X: 9850
T: Deoraiocht
R: slip jig
M: 9/8
K: Dmajor
|:F2A ABd BBA|BBA ABd eed|fgf edB BAd|FFE EFA B2A:|
|:FAA ABd BAd|FAA ABd edf|FAA ABd eed|fgf edB ABd:|

